X:1
T: Farewell Marian
N:
C:
S:Tune is "Farewell to the Shore"
A:
O:
R:
M:3/4
K:Em
I:speed 150
%W: A1
% voice 1 (1 lines, 16 notes)
K:Em
M:3/4
L:1/16
B2 e2 B2 ^c2 ^d2 e2 |f4 B8 |g2 a2 g2 f2 e2 f2 |^d4 B8 |
%W:
% voice 1 (1 lines, 17 notes)
B2 e2 B2 A2 B2 G2 |c2 e2 c2 B2 c2 A2 |G2 B2 G4 F4 |E12 |
%W: A2
% voice 1 (1 lines, 16 notes)
B2 e2 B2 ^c2 ^d2 e2 |f4 B8 |g2 a2 g2 f2 e2 f2 |^d4 B8 |
%W:
% voice 1 (1 lines, 17 notes)
B2 e2 B2 A2 B2 G2 |c2 e2 c2 B2 c2 A2 |G2 B2 G4 F4 |E12 |
%W: B
% voice 1 (1 lines, 10 notes)
B4 g6 B2 |A4 B8 |B4 d6 e2 |f4 B8 |
%W:
% voice 1 (1 lines, 11 notes)
g4 a6 a2 |g4 f4 e4 |d2 f2 d4 ^c4 |B12 |
%W: A3
% voice 1 (1 lines, 16 notes)
B2 e2 B2 ^c2 ^d2 e2 |f4 B8 |g2 a2 g2 f2 e2 f2 |^d4 B8 |
%W:
% voice 1 (1 lines, 17 notes)
B2 e2 B2 A2 B2 G2 |c2 e2 c2 B2 c2 A2 |G2 B2 G4 F4 |E12 ||
